assets/icons/history-icon.svg

<?xml version="1.0" encoding="utf-8"?>
<!-- Generator: Adobe Illustrator 25.4.1, SVG Export Plug-In . SVG Version: 6.00 Build 0)  -->
<svg version="1.1" id="Layer_1" xmlns="http://www.w3.org/2000/svg" xmlns:xlink="http://www.w3.org/1999/xlink" x="0px" y="0px"
	 viewBox="0 0 24 24" style="enable-background:new 0 0 24 24;" xml:space="preserve">
<style type="text/css">
	.st0{fill:#FFFFFF;}
</style>
<path class="st0" d="M12,20c4.4,0,8-3.6,8-8s-3.6-8-8-8s-8,3.6-8,8S7.6,20,12,20 M12,2c5.5,0,10,4.5,10,10s-4.5,10-10,10
	S2,17.5,2,12S6.5,2,12,2 M17,13.9l-0.7,1.3L11,12.3V7h1.5v4.4L17,13.9z"/>
</svg>

<svg xmlns="http://www.w3.org/2000/svg" viewBox="0 0 24 24"><path d="M12 20C16.4 20 20 16.4 20 12S16.4 4 12 4 4 7.6 4 12 7.6 20 12 20M12 2C17.5 2 22 6.5 22 12S17.5 22 12 22C6.5 22 2 17.5 2 12C2 6.5 6.5 2 12 2M17 13.9L16.3 15.2L11 12.3V7H12.5V11.4L17 13.9Z" /></svg>
